_inc/systems/logos/xbox.svg

<?xml version="1.0" encoding="utf-8"?>
<svg stroke-width="0.501" stroke-linejoin="bevel" fill-rule="evenodd" version="1.1" overflow="visible" viewBox="0 0 264 44" xmlns="http://www.w3.org/2000/svg">
  <path d="M 252.166 0 L 230.947 17.194 L 209.836 0 L 197.893 0 L 225.083 22 L 197.893 44 L 209.836 44 L 230.947 26.7 L 252.166 44 L 264 44 L 236.917 22 L 264 0 L 252.166 0" stroke="none" style="fill: rgb(255, 255, 255);"/>
  <path d="M 194.374 22 C 194.374 12.175 191.815 4.914 186.911 0 L 143.516 0 C 138.398 4.914 135.839 12.175 135.839 22 C 135.839 31.826 138.398 39.087 143.516 44 L 186.911 44 C 191.815 39.087 194.374 31.717 194.374 22 M 187.124 22 C 187.124 25.311 186.377 28.729 184.992 32.253 L 182.967 36.846 L 147.354 36.846 L 145.328 32.253 C 143.836 28.729 143.196 25.311 143.196 22 C 143.196 16.767 144.581 11.855 147.354 7.264 L 182.967 7.264 C 185.739 11.855 187.124 16.767 187.124 22" stroke="none" style="fill: rgb(255, 255, 255);"/>
  <path d="M 124.75 23.817 L 124.75 20.185 L 127.949 18.476 C 127.202 10.253 124.75 4.059 120.592 0 L 77.196 0 C 73.038 3.952 70.478 10.147 69.839 18.37 L 62.801 18.37 L 62.801 25.632 L 69.839 25.632 C 70.478 33.855 73.038 39.943 77.196 44 L 120.592 44 C 124.75 39.835 127.202 33.748 127.949 25.632 L 124.75 23.817 M 116.646 7.264 C 118.565 10.574 119.952 14.205 120.592 18.37 L 77.196 18.37 C 77.836 14.205 79.115 10.574 81.14 7.264 L 116.646 7.264 M 120.592 25.632 C 119.952 29.797 118.565 33.534 116.646 36.846 L 81.14 36.846 C 79.115 33.534 77.836 29.797 77.196 25.632 L 120.592 25.632" stroke="none" style="fill: rgb(255, 255, 255);"/>
  <path d="M 38.917 22 L 66 0 L 54.057 0 L 32.947 17.194 L 11.728 0 L 0 0 L 26.976 22 L 0 44 L 11.728 44 L 32.947 26.7 L 54.057 44 L 66 44 L 38.917 22" stroke="none" style="fill: rgb(255, 255, 255);"/>
</svg>

<svg xmlns="http://www.w3.org/2000/svg" fill-rule="evenodd" stroke-linejoin="bevel" stroke-width=".5" overflow="visible" viewBox="0 0 264 44"><path d="m252.17 0-21.22 17.2L209.84 0h-11.95l27.2 22-27.2 22h11.95l21.1-17.3L252.18 44H264l-27.08-22L264 0zm-57.8 22c0-9.82-2.56-17.09-7.46-22h-43.4c-5.11 4.91-7.67 12.18-7.67 22s2.56 17.09 7.68 22h43.4c4.9-4.91 7.45-12.28 7.45-22m-7.25 0c0 3.31-.74 6.73-2.13 10.25l-2.02 4.6h-35.62l-2.02-4.6A26 26 0 0 1 143.2 22q0-7.84 4.15-14.74h35.62q4.15 6.89 4.15 14.74m-62.37 1.82v-3.64l3.2-1.7c-.75-8.23-3.2-14.42-7.36-18.48H77.2c-4.15 3.95-6.71 10.15-7.35 18.37H62.8v7.26h7.04c.64 8.22 3.2 14.31 7.36 18.37h43.4c4.15-4.16 6.6-10.25 7.35-18.37zm-8.1-16.56a31 31 0 0 1 3.94 11.11H77.2c.65-4.17 1.92-7.8 3.95-11.1zm3.95 18.36a32 32 0 0 1-3.94 11.22H81.14a30 30 0 0 1-3.94-11.22z" style="fill:#fff"/><path d="M38.92 22 66 0H54.06L32.95 17.2 11.73 0H0l26.98 22L0 44h11.73l21.22-17.3L54.05 44H66z" style="fill:#fff"/></svg>
